svgs/thin/pallet-boxes.svg

<svg xmlns="http://www.w3.org/2000/svg" viewBox="0 0 640 512"><!--! Font Awesome Pro 6.6.0 by @fontawesome - https://fontawesome.com License - https://fontawesome.com/license (Commercial License) Copyright 2024 Fonticons, Inc. --><path d="M272 16L112 16C94.3 16 80 30.3 80 48l0 192c0 17.7 14.3 32 32 32l160 0c17.7 0 32-14.3 32-32l0-192c0-17.7-14.3-32-32-32zM112 0L272 0c26.5 0 48 21.5 48 48l0 192c0 26.5-21.5 48-48 48l-160 0c-26.5 0-48-21.5-48-48L64 48C64 21.5 85.5 0 112 0zM528 112l-96 0c-17.7 0-32 14.3-32 32l0 96c0 17.7 14.3 32 32 32l96 0c17.7 0 32-14.3 32-32l0-96c0-17.7-14.3-32-32-32zM432 96l96 0c26.5 0 48 21.5 48 48l0 96c0 26.5-21.5 48-48 48l-96 0c-26.5 0-48-21.5-48-48l0-96c0-26.5 21.5-48 48-48zM0 360c0-4.4 3.6-8 8-8l80 0 232 0 232 0 80 0c4.4 0 8 3.6 8 8s-3.6 8-8 8l-72 0 0 128 72 0c4.4 0 8 3.6 8 8s-3.6 8-8 8l-80 0-232 0L88 512 8 512c-4.4 0-8-3.6-8-8s3.6-8 8-8l72 0 0-128L8 368c-4.4 0-8-3.6-8-8zM96 496l216 0 0-128L96 368l0 128zm232 0l216 0 0-128-216 0 0 128z"/></svg>

<svg xmlns="http://www.w3.org/2000/svg" viewBox="0 0 640 512"><!--! Font Awesome Pro 6.4.2 by @fontawesome - https://fontawesome.com License - https://fontawesome.com/license (Commercial License) Copyright 2023 Fonticons, Inc. --><path d="M272 16H112C94.3 16 80 30.3 80 48V240c0 17.7 14.3 32 32 32H272c17.7 0 32-14.3 32-32V48c0-17.7-14.3-32-32-32zM112 0H272c26.5 0 48 21.5 48 48V240c0 26.5-21.5 48-48 48H112c-26.5 0-48-21.5-48-48V48C64 21.5 85.5 0 112 0zM528 112H432c-17.7 0-32 14.3-32 32v96c0 17.7 14.3 32 32 32h96c17.7 0 32-14.3 32-32V144c0-17.7-14.3-32-32-32zM432 96h96c26.5 0 48 21.5 48 48v96c0 26.5-21.5 48-48 48H432c-26.5 0-48-21.5-48-48V144c0-26.5 21.5-48 48-48zM0 360c0-4.4 3.6-8 8-8H88 320 552h80c4.4 0 8 3.6 8 8s-3.6 8-8 8H560V496h72c4.4 0 8 3.6 8 8s-3.6 8-8 8H552 320 88 8c-4.4 0-8-3.6-8-8s3.6-8 8-8H80V368H8c-4.4 0-8-3.6-8-8zM96 496H312V368H96V496zm232 0H544V368H328V496z"/></svg>
